X: 28372
T: Muineira De Lugo
R: jig
M: 6/8
K: Dmajor
|:dc|A3 Adc|A3 Adc|ABA GFG|B A2 Adc|
A3 Adc|A3 Adc|ABA GFE|1 D3 Ddc:|2 D3 D3||
|:F2 G AGF|G2 E E3|G2 A BAG|F2 D D3|
F2 G AGF|G2E E3|Fc/A/F Ec/A/E|1 D3 D3:|2 D3 Ddc||

